X: 6
T: Cantiga 6: A que do bon rey Davi
N: (#5 in To Codex)
B:Cantigas de Santa Maria
F:http://www.pbm.com/~lindahl/cantigas/facsimiles/E/067small.html
F:http://www.pbm.com/~lindahl/cantigas/facsimiles/To/bob005small.gif
F:http://www.pbm.com/~lindahl/cantigas/facsimiles/To/bob006small.gif
Z:Ali Corbin <ali.corbin:gmail.com>
M: 3/4
L: 1/4
Q: 1/4=180
K: F Ionian
%Staff 1
%%MIDI program 74
%
      A  B | c2 (c/B/)|c  (dc)|(cB2)| c (de) | f2  e| c3| d (e/f/g/f/)|c3 |
w:    A que  do  bon* rey  Da-* vi*   de seu* lin-na- ge de- cen-***   de,
      A2  B | c2   d  | c   (c/B/A)|G3|(A/G/) (FE) |(F/G/) A2|(c/B/) (AG)|(G/A/B/AG/)|F3|
w:   nen-bra-lle, cre-  ed'  a**    mi, de*   quen*  por*  e-  la*    mal* pren-****  de.
   z  A  B   |c2  d   |c (c/B/A)|G3|(A/G/) (FE)|(F/G/) A2 |(c/B/)(AG)|(G/A/B/AG/)|F3|
w:   Po-rend' a  Sant' Es-cri-** tu- ra,*  que*  non*  men- te*   nen* er-****    ra,
   z  A   B |c2 d |  c (c/B/A)|G3|(A/G/) (FE)|(F/G/) A2|(c/B/)(AG)|(G/A/B/AG/)|F3|
w:   nos con-ta un gran mi-**  ra- gre*   que* fez*  en  En-*  gra-*ter-****   ra
   z  A  B | c2 (c/B/)| c (dc) |(cB2)|B3| c  (de) |f2   e |c3| d  (e/f/g/f/) |c3 |
w:    a Vir-gen  San-* ta  Ma-*  ri-*  a, con que*  ju-deus an gran guer-***   ra
      A2  B | c2   d  | c (c/B/A)|G3 |(A/G/)(FE)|(F/G/) A2|(c/B/) (AG)|(G/A/B/AG/)|F3 ||
w:   por-que  na- ceu  Je- su-** Cris- to*   de-* la,* que  os*    re-* pren-****  de.
%
W:
W:
W:Esta é como Santa Maria ressucitou ao menyno
W:que o judeu matara porque cantava «Gaude Virgo Maria».
W: 
W: 
W:     A que do bon rey Davi
W: de seu linnage decende,
W: nenbra-lle, creed' a mi,
W: de quen por ela mal prende.
W: 
W:     Porend' a Sant' Escritura, | que non mente nen erra,
W:     nos conta un gran miragre | que fez en Engraterra
W:a Virgen Santa Maria, | con que judeus an gran guerra
W:     porque naceu Jesu-Cristo | dela, que os reprende.
W:
W: A que do bon rei Davi...
W: 
W:     Avia en Engraterra | huma moller menguada,
W:     a que morreu o marido, | con que era casada;
W:mas ficou-lle del un fillo, | con que foi mui confortada,
W:     e log' a Santa Maria | o offereu porende.
W:
W: A que do bon rei Davi...
W: 
W:     O menyn' a maravilla | er' apost' e fremoso,
W:     e d' aprender quant' oya | era muit' engeoso;
W:e demais tan ben cantava, | tan manss' e tan saboroso,
W:     que vencia quantos eran | en ssa terr' e alende.
W:
W: A que do bon rei Davi...
W: 
W:     E o cantar que o moço | mais aposto dizia,
W:     e de que sse mais pagava | quen quer que o oya,
W:era un cantar en que diz: «Gaude Virgo Maria»;
W:     e pois diz mal do judeu, que sobr' aquesto contende.
W:
W: A que do bon rei Davi...
W: 
W:     Este cantar o menyno | atan ben o cantava,
W:     que qualquer que o oya | tan toste o fillava
W:e por leva-lo consigo | conos outros barallava,
W:     dizend': «Eu dar-ll-ei que jante, | e demais que merende.»
W:
W: A que do bon rei Davi...
W: 
W:     Sobr' esto diss' o menyno: | «Madre, se que devedes,
W:     des oge mais vos consello | que o pedir leixedes,
W:pois vos dá Santa Maria | por mi quanto vos queredes,
W:     e leixad' ela despenda, | pois que tan ben despende.»
W:
W: A que do bon rei Davi...
W: 
W:     Depois, un dia de festa, | en que foron juntados
W:     muitos judeus e crischãos | e que jogavan dados,
W:enton cantou o menyno; | e foron en mui pagados
W:     todos, senon un judeu que lle quis gran mal des ende.
W:
W: A que do bon rei Davi...
W: 
W:     No que o moço cantava | o judeu meteu mentes,
W:     e levó-o a ssa casa, | pois se foron as gentes;
W:e deu-lle tal duma acha, | que ben atro' enos dentes
W:     o fendeu bees assi, ben como quen lenna fende.
W:
W: A que do bon rei Davi...
W: 
W:     Poi-lo menyno foi morto, | o judeu muit' agyna
W:     soterró-o na adega, | u sas cubas tiyna;
W:mas deu mui maa noite | a sa madre, a mesquyna,
W:     que o andava buscado | e dalend' e daquende.
W:
W: A que do bon rei Davi...
W: 
W:     A coitada por seu fillo | ya muito chorando
W:     e a quantos ela viia, | a todos preguntando
W:se o viran; e un ome | lle diss'; «Eu o vi ben quando
W:     un judeu o levou sigo, | que os panos revende.»
W:
W: A que do bon rei Davi...
W: 
W:     As gentes, quand' est' oiron, | foron alá correndo,
W:     e a madre do menyno | braadand' e dizendo:
W:«Di-me que fazes, meu fillo, | ou, que estás atendendo,
W:     que non vees a ta madre, | que ja sa mort' entende.»
W:
W: A que do bon rei Davi...
W: 
W:     Pois diss': «Ai, Santa Maria, | Sennor, tu que es porto
W:     u ariban os coytados, | dá-me meu fillo morto
W:ou viv' ou qual quer que seja; | se non, farás-me gran torto,
W:     e direi que mui mal erra | queno teu ben atende.»
W:
W: A que do bon rei Davi...
W: 
W:     O menyn' enton da fossa, | en que o soterrara
W:     o judeu, começou logo | en voz alta e clara
W:a cantar «Gaude Maria», | que nunca tan ben cantara,
W:     por prazer da Groriosa, | que seus servos defende.
W:
W: A que do bon rei Davi...
W: 
W:     Enton tod' aquela gente | que y juntada era
W:     foron correndo aa casa | ond' essa voz veera,
W:e sacaron o menyno | du o judeu o posera
W:     viv' e são, e dizian | todos: «Que ben recende!»
W:
W: A que do bon rey Davi...
W: 
W:     A madr' enton a seu fillo | preguntou que sentira;
W:     e ele lle contou como | o judeu o ferira,
W:e que ouvera tal sono | que sempre depois dormira,
W:     ata que Santa Maria | lle disse: «Leva-t' ende;
W:
W: A que do bon rey Davi...
W: 
W:     Ca muito per ás dormido, | dormidor te feziste,
W:     e o cantar que dizias | meu ja escaeciste;
W:mas leva-t' e di-o logo | mellor que nunca dissiste,
W:     assi que achar non possa | null'om' y que emende.»
W:
W: A que do bon rey Davi...
W: 
W:     Quand' esto diss' o menyno, | quantos s'y acertaron
W:     aos judeus foron logo | e todo-los mataron;
W:e aquel que o ferira | eno fogo o queimaron,
W:     dizendo: «Quen faz tal feito, | desta guisa o rende.»
W:
W: A que do bon rey Davi...


%%landscape 1
